src/main/resources/icons/AllIcons/general/inlineVariables.svg

<svg xmlns="http://www.w3.org/2000/svg" width="16" height="16" viewBox="0 0 16 16"><rect id="frame" width="16" height="16" fill="none"/><path fill="#7F8B91" fill-opacity=".5" fill-rule="evenodd" d="M3 1h11v14H3V1zm2 2v10h7V3H5zm1 2h5v1H6V5zm0 2h5v1H6V7zm0 2h5v1H6V9z"/></svg>

<!-- Copyright 2000-2021 JetBrains s.r.o. Use of this source code is governed by the Apache 2.0 license that can be found in the LICENSE file. -->
<svg xmlns="http://www.w3.org/2000/svg" width="16" height="16" viewBox="0 0 16 16">
  <path fill="#7F8B91" fill-opacity=".5" fill-rule="evenodd" d="M3,1 L14,1 L14,15 L3,15 L3,1 Z M5,3 L5,13 L12,13 L12,3 L5,3 Z M6,5 L11,5 L11,6 L6,6 L6,5 Z M6,7 L11,7 L11,8 L6,8 L6,7 Z M6,9 L11,9 L11,10 L6,10 L6,9 Z"/>
</svg>
